X:3235
T:Wheeler's Hornpipe
O:ireland
S:irtrad-l, Dan Mozell, 4/95
C:M. Higgins 1829
L:1/16
M:2/4
K:D
AG | FAd2 dfed | ceg2 g2ba | gfed cAec |
dfed cBAG | FA d2 dfed | ceg2 g2ba |
gfed cABc | d2d2d2 :||: cd | edcB Aceg |
gfaf d2f2 | gfba gfed | edcB A2G2 | FAdf GBeg |
Adfa Bdgb | afbg fedc | d2d2d2 :|
<DOCTYPE HTML PUBLIC "-//W3C//DTD HTML 4.0 Transitional//EN">
<HTML><HEAD>
<META content="text/html; charset=windows-1252" http-equiv=Content-Type></HEAD>
<BODY><XMP>X: 1
T:Roys Hope of Aldinullock  ??
O:ireland
M:4/4
L:1/16
S:Armitt MS
N:All grace notes except the last are demi-semiquavers, but the program
N:won't show them as that  The last one is a crochet.  The pauses are
N:shown as the standard pause marks.
N:There are dots scattered everywhere, it is not clear what is dotted and
N:what isn't. Therefore there may not be the right number of beats in a
N:bar, and bar
N:3, no matter what combination of dots and nots I tried, never added up.
N:There are squiggles over the 7th and 8th notes in the first full bar on
N:the second lin
K:D
A2F3 F3 E F3 E F B2|A2F3 F3 D F3 D E F2|A3 F  {F}"pause"E D d3 e {e}e3 e
{e}d3 B A3 B d F E3 D E F2||A2|A3 (Bc) d3 f (ed) (ef) d2 A|A2 B d F {F}
E3 D E F2 A|A3 (Bc) d3 f (ed) (gf) {g4}"pause"e4 d|d f3 d3 F F E F2 ({
A}dB)||






